X:2485
T:Cancioneiro de Casto Sampedro: N\'umero 338
T:Golpe do Carballiño
O:Galicia (Spain)
B:Cancioneiro de Casto Sampedro
Z:Transcrito por Jos\'e J. Presedo
Z:Covertido de Midi a abc por Antonio-Nil
N:http://www.arrakis.es/~jpresedo/
M: 4/4
L: 1/8
Q:1/4=145
K:C % 0 sharps
z3G/2F<ED/2 C/2D/2E/2F/2|G3A/2G/2 FE/2F/2 GA|G/2F/2E2G/2F<ED/2 C/2D/2E/2F/2|G3A/2G/2 FE/2F/2 GA/2G/2|
C2 zG/2F<ED/2 C/2D/2E/2F/2|G3A/2G/2 FE/2F/2 GA|G/2F/2E2G/2F<ED/2 C/2D/2E/2F/2|G3A/2G/2 FE/2F/2 GA/2G/2|
C4 D2 E2|FG2F E3/2D/2 CD|E/2F/2E/2D/2 C2 D2 E2|FG2F E3/2D/2 C<C|
C2<C2 D2 E2|FG2F E3/2D/2 CD|E/2F/2E/2D/2 C2 D2 E2|FG2F E3/2D/2 C<C|
CC2G/2F<ED/2 C/2D/2E/2F/2|G3A/2G/2 FE/2F/2 GA|G/2F/2E2G/2F<ED/2 C/2D/2E/2F/2|G3A/2G/2 FE/2F/2 GA/2G/2|
C2 zG/2F<ED/2 C/2D/2E/2F/2|G3A/2G/2 FE/2F/2 GA|G/2F/2E2G/2F<ED/2 C/2D/2E/2F/2|G3A/2G/2 FE/2F/2 GA/2G/2|
C4 D2 E2|FG2F E3/2D/2 CD|E/2F/2E/2D/2 C2 D2 E2|FG2F E3/2D/2 C<C|
C2<C2 D2 E2|FG2F E3/2D/2 CD|E/2F/2E/2D/2 C2 D2 E2|FG2F E3/2D/2 C<C|
C2<C2 


